icons/cloudy-sun.svg

<svg width="24" height="24" viewBox="0 0 24 24" fill="none" xmlns="http://www.w3.org/2000/svg">
<path fill-rule="evenodd" clip-rule="evenodd" d="M17.5 3C16.3417 3 15.3135 3.56301 14.6761 4.43143C15.1502 4.59671 15.6053 4.80809 16.0331 5.06317C16.8057 5.52387 17.4764 6.11979 18.002 6.8219C18.528 7.5244 18.8977 8.31882 19.0837 9.16095C19.1146 9.30065 19.1402 9.44107 19.1607 9.58198C20.2558 8.99048 21 7.83162 21 6.5C21 4.567 19.433 3 17.5 3ZM20.9188 10.8084C22.187 9.80103 23 8.24583 23 6.5C23 3.46243 20.5376 1 17.5 1C15.3556 1 13.4998 2.22665 12.5925 4.01469C11.9828 3.97742 11.3689 4.01107 10.7663 4.1157C9.86392 4.27237 9.0002 4.58588 8.22487 5.04229C6.8898 5.8282 5.87515 7.0047 5.36521 8.38957C4.03604 8.54723 2.78417 9.11725 1.81454 10.031C0.660383 11.1187 0 12.6071 0 14.1724C0 15.7378 0.660383 17.2261 1.81454 18.3138C2.96668 19.3996 4.5173 20 6.12261 20H19.189C20.4602 20 21.6823 19.5026 22.5856 18.6126C23.4895 17.7221 24 16.5111 24 15.2452C24 13.9793 23.4895 12.7683 22.5856 11.8778C22.1063 11.4056 21.5373 11.0439 20.9188 10.8084ZM13.0629 6.07752C12.417 5.97134 11.7534 5.97423 11.1084 6.08622C10.4359 6.20298 9.80103 6.43526 9.23946 6.76583C8.10447 7.43396 7.35179 8.45136 7.09763 9.56696C6.99395 10.022 6.58931 10.3448 6.12261 10.3448C5.01072 10.3448 3.95543 10.7616 3.18622 11.4865C2.41902 12.2096 2 13.1771 2 14.1724C2 15.1678 2.41902 16.1353 3.18622 16.8583C3.95543 17.5832 5.01072 18 6.12261 18H19.189C19.9393 18 20.6559 17.7062 21.1819 17.1879C21.7075 16.6701 22 15.971 22 15.2452C22 14.5194 21.7075 13.8203 21.1819 13.3025C20.6559 12.7842 19.9393 12.4904 19.189 12.4904H18.1001C17.7959 12.4904 17.5082 12.3519 17.3184 12.1141C17.1287 11.8762 17.0575 11.5649 17.1251 11.2683C17.1577 11.1252 17.1819 10.9813 17.1979 10.8371C17.2438 10.4226 17.2216 10.0036 17.1308 9.59221C17.0084 9.03795 16.7626 8.50351 16.401 8.02055C16.0392 7.5372 15.5677 7.11428 15.0087 6.78093C14.4496 6.4475 13.8164 6.21191 13.1449 6.09161C13.1176 6.08672 13.0902 6.08202 13.0629 6.07752Z" fill="black"/>
</svg>

<svg
  width="24"
  height="24"
  viewBox="0 0 24 24"
  xmlns="http://www.w3.org/2000/svg"
>
  <path
    fill-rule="evenodd"
    clip-rule="evenodd"
    d="M17.5 3a3.496 3.496 0 0 0-2.824 1.431c.474.166.93.377 1.357.632a6.806 6.806 0 0 1 1.969 1.759 6.097 6.097 0 0 1 1.159 2.76A3.5 3.5 0 0 0 17.5 3zm3.419 7.808a5.5 5.5 0 1 0-8.326-6.794 7.875 7.875 0 0 0-1.827.102 7.563 7.563 0 0 0-2.541.926c-1.335.786-2.35 1.963-2.86 3.348a6.25 6.25 0 0 0-3.55 1.641C.66 11.119 0 12.607 0 14.172c0 1.566.66 3.054 1.815 4.142A6.286 6.286 0 0 0 6.123 20h13.066a4.84 4.84 0 0 0 3.397-1.387A4.727 4.727 0 0 0 24 15.245c0-1.266-.51-2.477-1.414-3.367a4.816 4.816 0 0 0-1.667-1.07zm-7.856-4.73a5.878 5.878 0 0 0-1.955.008 5.563 5.563 0 0 0-1.869.68c-1.135.668-1.887 1.685-2.141 2.801a1 1 0 0 1-.975.778 4.286 4.286 0 0 0-2.937 1.141C2.42 12.21 2 13.178 2 14.172c0 .996.419 1.963 1.186 2.686A4.286 4.286 0 0 0 6.123 18h13.066a2.84 2.84 0 0 0 1.993-.812A2.727 2.727 0 0 0 22 15.245c0-.726-.293-1.425-.818-1.942a2.84 2.84 0 0 0-1.993-.813H18.1a1 1 0 0 1-.975-1.222 3.854 3.854 0 0 0 .006-1.676 4.098 4.098 0 0 0-.73-1.571 4.808 4.808 0 0 0-1.392-1.24 5.554 5.554 0 0 0-1.946-.703z"
  />
</svg>
